X:1
T:Viri Galilaei
T:Dulos Couillart edit BMarble
T:Viri Galilaei
T:Copyright © 2015 by The Choral Public Domain Library. Edition may be freely distributed, duplicated, performed or recorded.
T:Copyright © 2015 by The Choral Public Domain Library. Edition may be freely distributed, duplicated, performed or recorded.
T:Copyright © 2015 by The Choral Public Domain Library. Edition may be freely distributed, duplicated, performed or recorded.
T:Copyright © 2015 by The Choral Public Domain Library. Edition may be freely distributed, duplicated, performed or recorded.
T:Copyright © 2015 by The Choral Public Domain Library. Edition may be freely distributed, duplicated, performed or recorded.
C:Dulos Couillart
C:edit BMarble
Z:Copyright © 2015 by The Choral Public Domain Library. Edition may be freely distributed, duplicated, performed or recorded.
%%score [ 1 2 3 4 ]
L:1/8
Q:1/4=64
M:2/1
K:F
V:1 treble nm="Soprano" snm="S."
V:2 treble nm="Alto" snm="A."
V:3 treble-8 transpose=-12 nm="Tenor" snm="T."
V:4 bass nm="Bass" snm="B."
V:1
"^Ascension:  Men of Galilee, why do you stand here gazing into the sky?  This Jesus, who has been taken up from you into heaven, will come back in the same manner. Alleluia." F12 F4 | %1
w: Vi- ri|
 A6 B2 c8 | G8 z4 c4- | c4 c4 B4 d4- | d4 c8 =B4 | c8 z4 _B4 | B4 A4 G4 G4 | F8 z4 A4 | %8
w: Ga- li- lae-|i, vi-|* ri Ga- li-|* lae- *|i, quid|ad- mi- ra- mi-|ni a-|
 B4 G4 A4 F4 | c12 B4 | A8 G8 | z8 z4 A4 | B4 G4 A4 F4 | c12 B4 | A8 G8 | z8 z4 A4 | B4 G4 A6 GF | %17
w: spi- ci- en- tes|in _|cae- lum,|a-|spi- ci- en- tes|in _|cae- lum,|a-|spi- ci- en- * *|
 E4 C2 D2 E2 F2 G4- | G4 F8 E4 | F8 z8 | z4 F4 G6 A2 | B4 A4 A8 | z4 A4 A8 | G16 | z4 G4 A4 B4 | %25
w: tes in _ _ _ _|_ cae- *|lum?|Hic Je- *|* * sus,|hic Je-|sus|qui as- sum-|
 c4 A4 G4 c4 | B8 A8 | z4 c4 A4 B4 | c4 A4 G8- | G8 G2 F2 G2 A2 | B8 A8 | G8 z4 F4 | %32
w: ptus est a vo-|bis, _|qui _ as-|sum- ptus est|_ a _ _ _|_ vo-|bis in|
 G4 A4 B4 A2 G2 | F6 G2 A6 G2 ||[M:3/1] A2 B2 c4 B4 A8 G4 | A24- ||[M:2/1] A8 z4 A4 | A12 A4 | %38
w: cae- * * * *||lum , _ in cae- *|lum,|_ sic|ve- ni-|
 G16 | z8 A8 |[M:3/1] B12 B4 A4 c4 |[M:2/1] B4 A8 G4 | A4 A4 F4 B4 | A4 c4 B4 B4 | A6 G2 F4 G4- | %45
w: et,|sic|ve- ni- et. Al-|le- lu- *|ia, al- le- lu-|ia, al- le- lu-|ia, _ _ al-|
 G4 F8 E4 | F16 |] %47
w: * le- lu-|ia.|
V:2
 z16 | C12 C4 | E6 F2 G8- | G4 F2 E2 D6 E2 | F2 G2 A8 G4- | G4 ^F4 G8 | z4 F4 F4 E4 | D4 D4 C8 | %8
w: |Vi- ri|Ga- li- lae-|||* * i,|quid ad- mi-|ra- mi- ni|
 z4 E4 F4 D4 | E4 C4 G8- | G4 F4 E8 | D8 z8 | z4 E4 F4 D4 | E4 C4 G8- | G4 F4 E8 | D8 z8 | %16
w: a- spi- ci-|en- tes in|_ _ cae-|lum,|a- spi- ci-|en- tes in|_ _ cae-|lum,|
 z4 C4 F4 D4 | C6 B,2 C2 D2 E4 | D4 B,4 C8 | z4 C4 D8 | F8 z4 E4 | F8 C8 | z4 F4 F8- | %23
w: in cae- *|lum, _ _ _ _|in cae- lum?|Hic Je-|sus, hic|Je- sus,|hic Je-|
 F4 E2 D2 E4 C4 | D4 E4 F4 D4 | C4 F4 E8 | z8 z4 D4 | E4 F4 C4 G4 | E4 F4 D8 | E8 z4 C4 | %30
w: * * * sus qui|as- sum- ptus est|a vo- bis,|qui|as- sum- ptus est|a vo- *|bis in|
 D4 E4 F4 D4- | D4 C4 D8- | D8 z4 C4 | D2 C2 D2 E2 F6 D2 ||[M:3/1] E4 F4 z4 C4 D4 B,4 | C8 A,16 || %36
w: cae- * * *|* * lum|_ in|cae- * * * * *|lum, _ in cae- *|* lum,|
[M:2/1] z8 F8- | F8 F8- | F4 E4 E8 | z8 F8 |[M:3/1] D12 D4 F8 |[M:2/1] z4 C4 D4 E4 | F8 D8 | %43
w: sic|_ ve-|* ni- et,|sic|ve- ni- et.|Al- le- lu-|ia, _|
 z4 F4 G4 E4 | F6 E2 D4 C4- | C4 =B,4 C8 | C16 |] %47
w: al- le- lu-|ia, _ _ al-|* le- lu-|ia.|
V:3
 z8 F8- | F4 F4 A6 B2 | c12 B2 A2 | G4 A4 B6 c2 | d16 | z4 c4 _B4 G4 | A6 B2 c8 | z4 B4 B4 A4 | %8
w: Vi-|* ri Ga- li-|lae- * *|* * i, _|_|vi ri Ga-|li- lae- i,|quid ad- mi-|
 G4 G4 F8 | z4 A4 B4 G4 | A4 F4 c8- | c4 B4 A8 | G8 z8 | z4 A4 B4 G4 | A4 F4 c8- | c4 B4 A8 | %16
w: ra- mi- ni|a- spi- ci-|en- tes in|_ _ cae-|lum,|a- spi- ci-|en- tes in|_ _ cae-|
 G8 z4 F2 G2 | A2 B2 c8 B2 A2 | B2 A2 G2 F2 G8 | F8 z4 G4 | A8 c8 | z8 A8 | c16 | c12 B2 A2 | %24
w: lum, in _|_ _ _ cae- *||lum? Hic|Je- sus,|hic|Je-|sus _ _|
 G8 z4 G4 | A6 B2 c4 A4- | A4 G4 A6 B2 | c8 z4 d4- | d2 c2 c8 =B4 | c16 | G8 z8 | z16 | %32
w: _ qui|as- sum- ptus est|_ a vo- *|bis, a|_ _ _ _|vo-|bis||
 z4 F4 G2 F2 G2 A2 | B8 A8 ||[M:3/1] c6 d2 e4 f6 e2 d4- | d4 c4 d16 ||[M:2/1] z8 c8 | c12 c4 | %38
w: in cae- * * *|* lum,|in _ _ cae- * *|* * lum,|sic|ve- ni-|
 c16 | z8 c8 |[M:3/1] B12 B4 d8 |[M:2/1] d4 c4 B8 | A4 F4 B4 G4 | F4 c4 d4 B4 | c6 B2 A4 G2 A2 | %45
w: et,|sic|ve- ni- et.|Al- le- lu-|ia, al- le- lu-|ia, al- le- lu-|ia, _ _ al- *|
 B2 A2 G2 F2 G8 | F16 |] %47
w: le- * * * lu-|ia.|
V:4
 z16 | z16 | C,12 C,4 | E,6 F,2 G,6 F,2 | D,4 F,4 G,8 | A,8 G,6 F,2 | D,4 F,4 C,8 | z8 z4 F,4 | %8
w: ||Vi- ri|Ga- li- lae- *|* i, vi-|ri Ga- li-|lae- * i,|quid|
 F,4 E,4 D,4 D,4 | C,8 z4 E,4 | F,4 D,4 E,4 C,4 | G,12 F,4 | E,8 D,8 | z8 z4 E,4 | %14
w: ad- mi- ra- mi-|ni a-|spi- ci- en- tes|in _|cae- lum,|a-|
 F,4 D,4 E,4 C,4 | G,12 F,4 | E,8 D,8 | z4 F,8 C,4 | D,8 C,8 | F,4 A,4 G,4 F,2 E,2 | D,8 z4 C,4 | %21
w: spi- ci- en- tes|in _|cae- lum,|in _|cae- *|* * lum? _ _|_ Hic|
 D,8 F,8 | z4 F,4 F,8 | C,16 | z16 | z8 z4 C,4 | D,4 E,4 F,4 D,4 | C,4 F,8 G,4 | A,4 F,4 G,8 | %29
w: Je- sus,|hic Je-|sus||qui|_ as- sum- ptus|est a _|vo- * *|
 C,16 | z8 z4 F,4 | G,4 A,4 B,6 A,2 | G,4 F,4 _E,8 | D,16 ||[M:3/1] z4 F,4 G,4 A,4 B,8 | %35
w: bis|in|cae- * * *||lum,|a vo- bis in|
 A,8 D,16 ||[M:2/1] z8 F,8 | F,12 F,4 | C,16 | z8 F,8 |[M:3/1] G,12 G,4 D,8 | %41
w: cae- lum,|sic|ve- ni-|et,|sic|ve- ni- et.|
[M:2/1] z4 F,4 D,4 G,4 | F,8 z8 | z4 F,4 B,4 G,4 | F,12 E,4 | D,8 C,8 | F,,16 |] %47
w: Al- le- lu-|ia,|al- le- lu-|ia, al-|le- lu-|ia.|

